X:48
T:Quand le p\'eril est agr\'eable. [FJ48]
S:Festin joyeux.  Music page 23.
Z:transcribed by Eric Conrad, 2021.
N:NB The meter is given simply as "3"
N:NB In the MS, the G is the bottom line of the staff
N:NB Repeat marks were added at beginning and end.
N:NB The MS repeat mark is 4 vertical dots enclosed by bars on both sides.
N:NB The plus signs seem to indicate some kind of roll or trill.
N:NB1 MS has trilled "f2", here trilled "f3".
M:3/4
L:1/4
% K:C clef=treble1 % staff GBdfa
K:C % empty sig and end C (C Major)
|: ef>g | "_NB1""^+"f3 | de>f | "^+"e>(dc) | zea | ^f2g | gg^f | g3 ::
dde | f3 | e f/e/d/c/ | "^+"B3 | g>de | f"^+"e2 | (e"^+"d2) | c3 :|


